X:1
T:Title
%%score ( 1 2 ) { 3 | 4 }
L:1/8
Q:1/4=107
M:4/4
K:C
V:1 treble nm="Grand Piano, Soprano"
V:2 treble 
V:3 treble nm="Choir Pad, Who’ll Stand Up for Jesus?"
V:4 bass 
V:1
 [CE][DF] [EG]2- [EG][EG] [EG]2 | [EG]2 [FA]2 [Fc]4 | [Gc]2 [^Fd]2- [Fd][Fc] [GB]2 | [^FA]2 G6 | %4
w: By~Lewis~T.~Hartsough,~1868 * * * * *||||
 [CE][DF] [EG]2- [EG][EG] [EG]2 | [EG]2 [FA]2 [Fc]4 | [Ec]2 [Fd]2- [Fd][Ec] [Ge]2 | [Fd]2 [Ec]6 | %8
w: ||||
 cB [FA]2 [FA]2 [FA]2 | [FA]2 [EG]2 [EG]4 | [EG]2 [FA]2- [FA][FA] [EG]2 | [CE]2 [B,G]6 | %12
w: ||||
 [CE][DF] [EG]2- [EG][EG] [EG]2 | [EG]2 [FA]2 [Fc]4 | [Ec]2 [Fd]2- [Fd][Ec] [Ge]2 | [Fd]2 [Ec]6- | %16
w: ||||
 [Ec]4 z4 |] %17
w: |
V:2
 x8 | x8 | x8 | x8 | x8 | x8 | x8 | x8 | E2 z2 z4 | x8 | x8 | x8 | x8 | x8 | x8 | x8 | x8 |] %17
V:3
 G,2 C2- CC C2 | C2 C2[K:bass] A,4 | G,2 A,2- A,A,[K:treble] D2 | C2 B,6 | G,2 C2- CC C2 | %5
 C2 C2[K:bass] A,4 | C2 B,2- B,C[K:treble] C2 | B,2 C6 | C2 C2 C2 C2 | C2 C2 C4 | C2 C2- CC C2 | %11
 G,2 G,6 | G,2 C2- C[K:treble]C C2 | C2 C2 A,4 | C2 B,2- B,C C2 | B,2 C6- | C4 z4 |] %17
V:4
 C,2 C,2- C,C, C,2 | C,2 F,2 F,4 | E,2 D,2- D,D, D,2 | D,2 G,,6 | C,2 C,2- C,C, C,2 | C,2 F,2 F,4 | %6
 A,2 G,2- G,G, G,2 | G,2 C,6 | C,2 F,2 F,2 F,2 | F,2 C,2 C,4 | C,2 F,2- F,F, C,2 | C,2 G,,6 | %12
 C,2 C,2- C,C, C,2 | C,2 F,2 F,4 | A,2 G,2- G,G, G,2 | G,2 C,6- | C,4 z4 |] %17

